icons/svg/microsoft-edge.svg

<svg width="24" height="24" viewBox="0 0 24 24" fill="none" xmlns="http://www.w3.org/2000/svg">
<path d="M2.7605 12C2.7605 17.1086 6.90186 21.25 12.0105 21.25C12.7962 21.25 13.559 21.152 14.2874 20.9677M2.7605 12C2.7605 6.89137 6.90186 2.75 12.0105 2.75C15.8061 2.75 20.0065 4.52653 21.0277 9.54847C21.2514 10.6488 21.1181 11.8058 20.5646 12.7827C19.9834 13.8084 19.0063 14.9647 17.5546 14.9647C17.0056 15.0533 13.3906 15.1406 13.5764 13.6529C14.0143 13.238 14.2874 12.6509 14.2874 12M2.7605 12C2.7605 12 3.20517 7.15125 8.54175 7.16747C14.1157 7.18441 14.2874 12 14.2874 12M14.2874 12C14.2874 10.7425 13.268 9.72308 12.0105 9.72308C11.3681 9.72308 10.3738 10.4171 10.3738 10.4171M14.2874 20.9677C16.5266 20.4009 18.4404 19.0175 19.6934 17.1529C19.8782 16.8781 19.7515 16.4595 19.4336 16.5524C19.3736 16.57 19.3144 16.5994 19.2593 16.6449C17.8955 17.2624 15.0396 17.7651 12.5738 16.3878C11.0732 15.5497 10.2004 14.2531 9.93518 13.1859C9.83627 12.9307 9.73358 12.2901 9.73358 12C9.73358 11.3849 9.97745 10.8268 10.3738 10.4171M14.2874 20.9677C14.2874 20.9677 8.27492 21.4575 7.74127 15.9135C7.44387 12.8238 9.04761 11.2116 10.3738 10.4171" stroke="currentColor" stroke-width="1.5" stroke-linecap="round" stroke-linejoin="round"/>
</svg>

<svg xmlns="http://www.w3.org/2000/svg" width="24" height="24" fill="none" viewBox="0 0 24 24"><path stroke="currentColor" stroke-linecap="round" stroke-linejoin="round" stroke-width="1.5" d="M2.76 12a9.25 9.25 0 0 0 11.527 8.968M2.761 12a9.25 9.25 0 0 1 9.25-9.25c3.795 0 7.996 1.777 9.017 6.798.223 1.1.09 2.258-.463 3.235-.582 1.025-1.559 2.182-3.01 2.182-.55.088-4.164.176-3.979-1.312A2.27 2.27 0 0 0 14.287 12M2.761 12s.444-4.849 5.78-4.833C14.117 7.184 14.288 12 14.288 12m0 0a2.277 2.277 0 0 0-2.277-2.277c-.642 0-1.636.694-1.636.694m3.913 10.55a9.26 9.26 0 0 0 5.406-3.814c.185-.275.058-.694-.26-.6a.5.5 0 0 0-.174.092c-1.364.617-4.22 1.12-6.685-.257-1.5-.838-2.374-2.135-2.639-3.202-.099-.255-.201-.896-.201-1.186 0-.615.243-1.173.64-1.583m3.913 10.55s-6.012.49-6.546-5.053c-.297-3.09 1.307-4.702 2.633-5.497"/></svg>
